X:1
T:Jack Was Every Inch a Sailor
M:4/4
L:1/8
K:C
 G3/2 G/2| CE GG CE GG| AG FE D3 F| DE FF DE FF| BA GF| E3 G/2G/2|\
 CE GG CE GG| AG FE D3 F| DE FF DE FF| BA FD| C4| G3 ^FA GE C| B,4 A4|\
 A3 ^GB AF D| C4| G4| G3 ^FA GE C| B,4 A2 AA| BA GE F2 B,2| C6||
